build/static/img/icons/notebook.svg

<svg width="24" height="29" viewBox="0 0 24 29" fill="none" xmlns="http://www.w3.org/2000/svg">
<path fill-rule="evenodd" clip-rule="evenodd" d="M9.981 0.407556C9.07725 0.778931 7.773 1.97275 7.08225 3.05902C6.25275 4.3658 5.14575 5.03505 3.81375 5.03505C0.332999 5.03505 0 6.0927 0 17.1551C0 26.5098 0.12825 27.4886 1.4505 28.219C3.3375 29.2603 20.6625 29.2603 22.5495 28.219C23.8718 27.4886 24 26.5098 24 17.1551C24 6.18864 23.652 5.03505 20.3423 5.03505C19.2285 5.03505 17.7113 4.12905 16.5548 2.77275C14.3348 0.169256 12.3217 -0.554926 9.981 0.407556ZM14.25 3.8745C15.0548 4.8749 14.745 5.03505 12 5.03505C9.255 5.03505 8.94525 4.8749 9.75 3.8745C10.2638 3.2362 11.2762 2.71395 12 2.71395C12.7238 2.71395 13.7362 3.2362 14.25 3.8745ZM21.5865 16.834L21.7972 25.9249H12.024H2.25V17.1566C2.25 12.3334 2.48475 8.14532 2.772 7.84899C3.05925 7.55344 7.362 7.40799 12.3345 7.52714L21.375 7.743L21.5865 16.834Z" fill="white"/>
</svg>

<svg width="24" height="29" fill="none" xmlns="http://www.w3.org/2000/svg"><path fill-rule="evenodd" clip-rule="evenodd" d="M9.981.408c-.904.37-2.208 1.565-2.899 2.651-.83 1.307-1.936 1.976-3.268 1.976C.333 5.035 0 6.093 0 17.155 0 26.51.128 27.49 1.45 28.22c1.887 1.041 19.213 1.041 21.1 0 1.322-.73 1.45-1.71 1.45-11.064 0-10.966-.348-12.12-3.658-12.12-1.113 0-2.63-.906-3.787-2.262C14.335.169 12.322-.555 9.98.408zm4.269 3.466c.805 1 .495 1.161-2.25 1.161s-3.055-.16-2.25-1.16c.514-.639 1.526-1.161 2.25-1.161s1.736.522 2.25 1.16zm7.337 12.96l.21 9.09H2.25v-8.767c0-4.824.235-9.012.522-9.308.287-.296 4.59-.441 9.563-.322l9.04.216.212 9.091z" fill="#fff"/></svg>
